src/assets/icons/search.svg

<svg xmlns="http://www.w3.org/2000/svg" width="20" height="20" viewBox="0 0 24 24" fill="none">
  <path d="M19.6 21L13.3 14.7C12.8 15.1 12.225 15.4167 11.575 15.65C10.925 15.8833 10.2333 16 9.5 16C7.68333 16 6.14583 15.3708 4.8875 14.1125C3.62917 12.8542 3 11.3167 3 9.5C3 7.68333 3.62917 6.14583 4.8875 4.8875C6.14583 3.62917 7.68333 3 9.5 3C11.3167 3 12.8542 3.62917 14.1125 4.8875C15.3708 6.14583 16 7.68333 16 9.5C16 10.2333 15.8833 10.925 15.65 11.575C15.4167 12.225 15.1 12.8 14.7 13.3L21 19.6L19.6 21ZM9.5 14C10.75 14 11.8125 13.5625 12.6875 12.6875C13.5625 11.8125 14 10.75 14 9.5C14 8.25 13.5625 7.1875 12.6875 6.3125C11.8125 5.4375 10.75 5 9.5 5C8.25 5 7.1875 5.4375 6.3125 6.3125C5.4375 7.1875 5 8.25 5 9.5C5 10.75 5.4375 11.8125 6.3125 12.6875C7.1875 13.5625 8.25 14 9.5 14Z" fill="#979797"/>
</svg>

<svg xmlns="http://www.w3.org/2000/svg" width="20" height="20" viewBox="0 0 24 24" fill="none"><path d="m19.6 21-6.3-6.3A6 6 0 0 1 9.5 16q-2.7 0-4.6-1.9A6 6 0 0 1 3 9.5q0-2.7 1.9-4.6A6 6 0 0 1 9.5 3q2.8 0 4.6 1.9A6 6 0 0 1 16 9.5a6 6 0 0 1-1.3 3.8l6.3 6.3zM9.5 14q1.9 0 3.2-1.3T14 9.5t-1.3-3.2T9.5 5 6.3 6.3 5 9.5t1.3 3.2Q7.7 14 9.5 14" fill="#979797"/></svg>
